X: 32077
T: Penny Candle, The
R: reel
M: 4/4
K: Dmajor
|:Ad d2 adfd|Adfa g2 ec|Ad d2 AGFD|E/F/G AB =c2 Bc|
Ad d2 adfd|Adfa g2 ag|face dfed|cAGE FD D2:|
|:d2 fd Adfa|g2 fa gedB|=c2 ec Gced|cAaA gAce|
d2 fd Adfa|g2 fa gedB|cdec d2 ed|cAGE FD D2:|

